X: 23699
T: Liscoleman
R: reel
M: 4/4
K: Gmajor
|:BG G2 dGBc|dgfg edcB|cA A2 eA A2|edef gedc|
BDGB DGBc|dgfg e3d|(3Bcd ef g3e|dBcA BG G2:|
|:d2 BG DGBd|g3f edcB|eA A2 eAcd|e3g agea|
d2 BG DGBc|dgfg edcB|cdef g3e|dBcA BG G2:|

